X:1
T:Johnnie Armstrong
M:3/4
L:1/4
K:G
 G3/4- A/4| B2 A| G- E D| D- E G| A2 G3/4- A/4| B2 A3/4- G/4| G- E D|\
 E- G G3/4- A/4| G2 G3/4 A/4| B2 B3/4- A/4| G- E D| D- E G/2-A/4-B/4|\
 A2 G3/4- A/4| B2 A3/4- G/4| G- E D| E- G G3/4- A/4| G2B/2-d/2| e2e/4-d/4 B/2|\
 A- G A| B- g e| e/2 d z/2 B| A- B d| g2e/2-d/2| B- e e3/4- f/4| e2 d|\
 e3/4- f/4- g f| e3/4- f/4 e3/4- d/4B/2-e/2| d3/4- e/4 d/4- B3/4 A3/4- G/4|\
 A2 B3/4- d/4| e3/4- f/4-g/2-e/2d/2-B/2| c3/2- B/2A/2-G/2| E G G3/4- A/4|\
 G2||
